X:29
T:The Galleon in the Channel
M:4/4
L:1/8
R:Slow reel
C:Gris Sanderson
Q:300
N:I don't always fall asleep on boats (though that is generally 
N:what happens) and this was one spectacle I didn't miss - a 
N:real galleon with sails and all floating about on the sea. This 
N:reel is to commemorate that wonderful sight. It was used in a 
N:theatre production that was performed at the 
N:amazing cliff top Minack Theatre near Land's End in 
N:Cornwall.
K:Em
E2EDE2DE-|EA,B,D EDEG|GAAG A2GA-|ABde BAGF|
E2EDE2DE-|EA,B,D EGFD|C2CD EGAD-|1DAAG FEFD:|2DA-AB AB^dB||
|:e2ede2fg-|gbfg eBde|c2ce gecd-|1daba gfed|
egfd BdeB-|BAAG GEDE|C3D EGAD-|DAAB AB^dB:|
|2daab a2ga|b2bg afdg-|gede B2B2|C3D EGAD-|DAAG FEFD||
